X: 1907
T: Arra Mountains, The
R: slip jig
M: 9/8
K: Adorian
EAA EAB cBc|EAA EAF GED|EAA EAB c2d|e3 ege dBG|
EAA EDE c2A|EAA E3 GED|EAA EAB c2d|ef/g/e ege dBG||
A2a gef g3|eaa ged Bcd|e2a gef g2e|dB/c/d e/f/ge dBG|
A2a gef g3|eaa ged Bcd|e/f/ge f/g/af g2e|dB/c/d e/f/ge dBG||

